src/assets/filled/Export2.svg

<svg width="24" height="24" viewBox="0 0 24 24"  xmlns="http://www.w3.org/2000/svg">
<path d="M21.14 9.8999H12.75V15.3799C12.75 15.7899 12.41 16.1299 12 16.1299C11.59 16.1299 11.25 15.7899 11.25 15.3799V9.8999H2.86C2.38 9.8999 2 10.2799 2 10.7599C2 16.6499 6.11 20.7599 12 20.7599C17.89 20.7599 22 16.6499 22 10.7599C22 10.2799 21.62 9.8999 21.14 9.8999Z" />
<path d="M12.7499 5.79993L14.3099 7.35993C14.5999 7.64993 15.0799 7.64993 15.3699 7.35993C15.6599 7.06993 15.6599 6.58993 15.3699 6.29993L12.5199 3.45993C12.2299 3.16993 11.7499 3.16993 11.4599 3.45993L8.6199 6.30993C8.4799 6.45993 8.3999 6.64993 8.3999 6.83993C8.3999 7.02993 8.4699 7.21993 8.6199 7.36993C8.9099 7.65993 9.3899 7.65993 9.6799 7.36993L11.2399 5.80993V9.89993H12.7399V5.79993H12.7499Z" />
</svg>

<?xml version="1.0" encoding="UTF-8"?>
<svg width="24" height="24" viewBox="0 0 24 24" xmlns="http://www.w3.org/2000/svg">
 <path d="m21.14 9.8999h-8.39v5.48c0 0.41-0.34 0.75-0.75 0.75s-0.75-0.34-0.75-0.75v-5.48h-8.39c-0.48 0-0.86 0.38-0.86 0.86 0 5.89 4.11 10 10 10s10-4.11 10-10c0-0.48-0.38-0.86-0.86-0.86z"/>
 <path d="m12.75 5.7999 1.56 1.56c0.29 0.29 0.77 0.29 1.06 0s0.29-0.77 0-1.06l-2.85-2.84c-0.29-0.29-0.77-0.29-1.06 0l-2.84 2.85c-0.14 0.15-0.22 0.34-0.22 0.53s0.07 0.38 0.22 0.53c0.29 0.29 0.77 0.29 1.06 0l1.56-1.56v4.09h1.5v-4.1h0.01z"/>
</svg>
